X: 17
T: Bear Dance Song (a)
N: Derived from pawnee17.krn
O: Oklahoma, U.S.A.
N: from Pawnee Music by Frances Densmore, 1926
Z: transcribed to **kern format by David Huron, August 2000
C: Skidi and Chaui Bands, 1919
L: 1/8
M: 3/4
Q: 1/4=88
K: F clef=bass
%%linebreak <none>
F F/ F/ F F// E// E< E E/[M:2/4] | 
E> E E F, | 
F,2F,2 | 
E> F, E/ F, F,/ | 
F F F/ E E/ | 
E E E3/ E/[M:3/4] | 
E F,F,2F, F, | 
F, F, F, F, F, F,3// G,// | 
G, G, G,/ F, F,/ F, F,[M:2/4] | 
F,2D, G,/ F,/ | 
F, F, G, G,/ F,/ | 
F,2G, F, | 
F, G, F, G, | 
F,2z3/ F/ | 
F> D D3/ F/ | 
F Fz2 | 
D F, F, F,/ z/[M:3/4] | 
F, G, F, G, F, F,3// F,// | 
G, G, G,/ F, F,/ F, F,[M:2/4] | 
F,2D, G,/ F,/ | 
F,2F, F,/ F,/ | 
F,2G, F, | 
F, G, F, G, | 
F,2z2 |]  



